vanilla/guess-the-word/public/word-scramblle-logo.svg

<svg width="144" height="16" viewBox="0 0 144 16" fill="none" xmlns="http://www.w3.org/2000/svg">
<path d="M4.83039 15.5L0.290394 1.38H3.41039L6.73039 12.24H5.51039L8.75039 1.38H11.2104L14.4504 12.24H13.2504L16.5504 1.38H19.6504L15.1104 15.5H12.6504L9.39039 4.64H10.5504L7.29039 15.5H4.83039ZM24.2995 15.72C23.2995 15.72 22.3928 15.5 21.5795 15.06C20.7795 14.6067 20.1461 13.9933 19.6795 13.22C19.2128 12.4467 18.9795 11.58 18.9795 10.62C18.9795 9.66 19.2128 8.8 19.6795 8.04C20.1461 7.28 20.7795 6.68 21.5795 6.24C22.3795 5.78667 23.2861 5.56 24.2995 5.56C25.3128 5.56 26.2195 5.78 27.0195 6.22C27.8195 6.66 28.4528 7.26667 28.9195 8.04C29.3861 8.8 29.6195 9.66 29.6195 10.62C29.6195 11.58 29.3861 12.4467 28.9195 13.22C28.4528 13.9933 27.8195 14.6067 27.0195 15.06C26.2195 15.5 25.3128 15.72 24.2995 15.72ZM24.2995 12.94C24.7395 12.94 25.1261 12.8467 25.4595 12.66C25.7928 12.46 26.0461 12.1867 26.2195 11.84C26.4061 11.48 26.4995 11.0733 26.4995 10.62C26.4995 10.1667 26.4061 9.77333 26.2195 9.44C26.0328 9.09333 25.7728 8.82667 25.4395 8.64C25.1195 8.44 24.7395 8.34 24.2995 8.34C23.8728 8.34 23.4928 8.44 23.1595 8.64C22.8261 8.82667 22.5661 9.09333 22.3795 9.44C22.1928 9.78667 22.0995 10.1867 22.0995 10.64C22.0995 11.08 22.1928 11.48 22.3795 11.84C22.5661 12.1867 22.8261 12.46 23.1595 12.66C23.4928 12.8467 23.8728 12.94 24.2995 12.94ZM30.9429 15.5V5.78H34.0029V15.5H30.9429ZM34.0029 10.16L32.7229 9.16C32.9762 8.02667 33.4029 7.14667 34.0029 6.52C34.6029 5.89333 35.4362 5.58 36.5029 5.58C36.9696 5.58 37.3762 5.65333 37.7229 5.8C38.0829 5.93333 38.3962 6.14667 38.6629 6.44L36.8429 8.74C36.7096 8.59333 36.5429 8.48 36.3429 8.4C36.1429 8.32 35.9162 8.28 35.6629 8.28C35.1562 8.28 34.7496 8.44 34.4429 8.76C34.1496 9.06667 34.0029 9.53333 34.0029 10.16ZM43.1446 15.7C42.2246 15.7 41.4046 15.48 40.6846 15.04C39.9779 14.6 39.4179 14 39.0046 13.24C38.6046 12.48 38.4046 11.6133 38.4046 10.64C38.4046 9.66667 38.6046 8.8 39.0046 8.04C39.4179 7.28 39.9779 6.68 40.6846 6.24C41.4046 5.8 42.2246 5.58 43.1446 5.58C43.8113 5.58 44.4113 5.70667 44.9446 5.96C45.4913 6.21333 45.9379 6.56667 46.2846 7.02C46.6446 7.46 46.8446 7.96667 46.8846 8.54V12.64C46.8446 13.2133 46.6513 13.7333 46.3046 14.2C45.9579 14.6533 45.5113 15.02 44.9646 15.3C44.4179 15.5667 43.8113 15.7 43.1446 15.7ZM43.6846 12.94C44.1246 12.94 44.5046 12.8467 44.8246 12.66C45.1446 12.46 45.3979 12.1867 45.5846 11.84C45.7713 11.4933 45.8646 11.0933 45.8646 10.64C45.8646 10.1867 45.7713 9.79333 45.5846 9.46C45.4113 9.11333 45.1579 8.84 44.8246 8.64C44.5046 8.44 44.1313 8.34 43.7046 8.34C43.2779 8.34 42.8979 8.44 42.5646 8.64C42.2446 8.84 41.9846 9.11333 41.7846 9.46C41.5979 9.80667 41.5046 10.2 41.5046 10.64C41.5046 11.08 41.5979 11.4733 41.7846 11.82C41.9713 12.1667 42.2313 12.44 42.5646 12.64C42.8979 12.84 43.2713 12.94 43.6846 12.94ZM48.7446 15.5H45.7446V12.88L46.2046 10.52L45.6846 8.16V0.98H48.7446V15.5ZM58.8277 15.72C57.6677 15.72 56.6677 15.5333 55.8277 15.16C55.0011 14.7733 54.2411 14.1933 53.5477 13.42L55.5877 11.4C56.0411 11.92 56.5411 12.3267 57.0877 12.62C57.6477 12.9 58.2944 13.04 59.0277 13.04C59.6944 13.04 60.2077 12.92 60.5677 12.68C60.9411 12.44 61.1277 12.1067 61.1277 11.68C61.1277 11.2933 61.0077 10.98 60.7677 10.74C60.5277 10.5 60.2077 10.2933 59.8077 10.12C59.4211 9.94667 58.9877 9.78 58.5077 9.62C58.0411 9.46 57.5744 9.28 57.1077 9.08C56.6411 8.86667 56.2077 8.60667 55.8077 8.3C55.4211 7.98 55.1077 7.58667 54.8677 7.12C54.6277 6.64 54.5077 6.04 54.5077 5.32C54.5077 4.45333 54.7144 3.70667 55.1277 3.08C55.5544 2.45333 56.1411 1.98 56.8877 1.66C57.6344 1.32667 58.4944 1.16 59.4677 1.16C60.4544 1.16 61.3544 1.33333 62.1677 1.68C62.9944 2.02667 63.6744 2.5 64.2077 3.1L62.1677 5.12C61.7411 4.68 61.3077 4.35333 60.8677 4.14C60.4411 3.92667 59.9544 3.82 59.4077 3.82C58.8611 3.82 58.4277 3.92667 58.1077 4.14C57.7877 4.34 57.6277 4.63333 57.6277 5.02C57.6277 5.38 57.7477 5.67333 57.9877 5.9C58.2277 6.11333 58.5411 6.3 58.9277 6.46C59.3277 6.62 59.7611 6.78 60.2277 6.94C60.7077 7.1 61.1811 7.28667 61.6477 7.5C62.1144 7.71333 62.5411 7.98667 62.9277 8.32C63.3277 8.64 63.6477 9.05333 63.8877 9.56C64.1277 10.0533 64.2477 10.6667 64.2477 11.4C64.2477 12.7467 63.7677 13.8067 62.8077 14.58C61.8477 15.34 60.5211 15.72 58.8277 15.72ZM70.4093 15.72C69.4093 15.72 68.5026 15.5 67.6893 15.06C66.876 14.62 66.236 14.0133 65.7693 13.24C65.3026 12.4667 65.0693 11.6 65.0693 10.64C65.0693 9.66667 65.3026 8.8 65.7693 8.04C66.2493 7.26667 66.896 6.66 67.7093 6.22C68.5226 5.78 69.436 5.56 70.4493 5.56C71.2093 5.56 71.9026 5.69333 72.5293 5.96C73.1693 6.21333 73.736 6.6 74.2293 7.12L72.2693 9.08C72.0426 8.82667 71.776 8.64 71.4693 8.52C71.176 8.4 70.836 8.34 70.4493 8.34C70.0093 8.34 69.616 8.44 69.2693 8.64C68.936 8.82667 68.6693 9.09333 68.4693 9.44C68.2826 9.77333 68.1893 10.1667 68.1893 10.62C68.1893 11.0733 68.2826 11.4733 68.4693 11.82C68.6693 12.1667 68.9426 12.44 69.2893 12.64C69.636 12.84 70.0226 12.94 70.4493 12.94C70.8493 12.94 71.2026 12.8733 71.5093 12.74C71.8293 12.5933 72.1026 12.3933 72.3293 12.14L74.2693 14.1C73.7626 14.6333 73.1893 15.04 72.5493 15.32C71.9093 15.5867 71.196 15.72 70.4093 15.72ZM75.4312 15.5V5.78H78.4912V15.5H75.4312ZM78.4912 10.16L77.2112 9.16C77.4645 8.02667 77.8912 7.14667 78.4912 6.52C79.0912 5.89333 79.9245 5.58 80.9912 5.58C81.4578 5.58 81.8645 5.65333 82.2112 5.8C82.5712 5.93333 82.8845 6.14667 83.1512 6.44L81.3312 8.74C81.1978 8.59333 81.0312 8.48 80.8312 8.4C80.6312 8.32 80.4045 8.28 80.1512 8.28C79.6445 8.28 79.2378 8.44 78.9312 8.76C78.6378 9.06667 78.4912 9.53333 78.4912 10.16ZM87.5529 15.7C86.6596 15.7 85.8596 15.48 85.1529 15.04C84.4596 14.6 83.9062 14 83.4929 13.24C83.0929 12.48 82.8929 11.6133 82.8929 10.64C82.8929 9.66667 83.0929 8.8 83.4929 8.04C83.9062 7.28 84.4596 6.68 85.1529 6.24C85.8596 5.8 86.6596 5.58 87.5529 5.58C88.2062 5.58 88.7929 5.70667 89.3129 5.96C89.8462 6.21333 90.2796 6.56667 90.6129 7.02C90.9462 7.46 91.1329 7.96667 91.1729 8.54V12.74C91.1329 13.3133 90.9462 13.8267 90.6129 14.28C90.2929 14.72 89.8662 15.0667 89.3329 15.32C88.7996 15.5733 88.2062 15.7 87.5529 15.7ZM88.1729 12.94C88.8262 12.94 89.3529 12.7267 89.7529 12.3C90.1529 11.86 90.3529 11.3067 90.3529 10.64C90.3529 10.1867 90.2596 9.78667 90.0729 9.44C89.8996 9.09333 89.6462 8.82667 89.3129 8.64C88.9929 8.44 88.6196 8.34 88.1929 8.34C87.7662 8.34 87.3862 8.44 87.0529 8.64C86.7329 8.82667 86.4729 9.09333 86.2729 9.44C86.0862 9.78667 85.9929 10.1867 85.9929 10.64C85.9929 11.08 86.0862 11.4733 86.2729 11.82C86.4596 12.1667 86.7196 12.44 87.0529 12.64C87.3862 12.84 87.7596 12.94 88.1729 12.94ZM90.2329 15.5V12.88L90.6929 10.52L90.2329 8.16V5.78H93.2329V15.5H90.2329ZM95.1874 15.5V5.78H98.2474V15.5H95.1874ZM101.407 15.5V9.82C101.407 9.32667 101.254 8.94667 100.947 8.68C100.654 8.4 100.287 8.26 99.8474 8.26C99.5408 8.26 99.2674 8.32667 99.0274 8.46C98.7874 8.58 98.5941 8.75333 98.4474 8.98C98.3141 9.20667 98.2474 9.48667 98.2474 9.82L97.0674 9.3C97.0674 8.52667 97.2341 7.86667 97.5674 7.32C97.9008 6.76 98.3541 6.33333 98.9274 6.04C99.5008 5.73333 100.147 5.58 100.867 5.58C101.547 5.58 102.154 5.73333 102.687 6.04C103.234 6.34667 103.667 6.77333 103.987 7.32C104.307 7.86667 104.467 8.52 104.467 9.28V15.5H101.407ZM107.627 15.5V9.82C107.627 9.32667 107.474 8.94667 107.167 8.68C106.874 8.4 106.507 8.26 106.067 8.26C105.761 8.26 105.487 8.32667 105.247 8.46C105.007 8.58 104.814 8.75333 104.667 8.98C104.534 9.20667 104.467 9.48667 104.467 9.82L102.707 9.58C102.734 8.75333 102.927 8.04667 103.287 7.46C103.661 6.86 104.147 6.4 104.747 6.08C105.361 5.74667 106.047 5.58 106.807 5.58C107.554 5.58 108.214 5.74 108.787 6.06C109.374 6.36667 109.834 6.81333 110.167 7.4C110.514 7.97333 110.687 8.66667 110.687 9.48V15.5H107.627ZM118.048 15.7C117.395 15.7 116.795 15.5667 116.248 15.3C115.702 15.02 115.255 14.6533 114.908 14.2C114.562 13.7333 114.362 13.2133 114.308 12.64V8.54C114.362 7.96667 114.562 7.46 114.908 7.02C115.255 6.56667 115.702 6.21333 116.248 5.96C116.795 5.70667 117.395 5.58 118.048 5.58C118.968 5.58 119.782 5.8 120.488 6.24C121.208 6.68 121.768 7.28 122.168 8.04C122.582 8.8 122.788 9.66667 122.788 10.64C122.788 11.6133 122.582 12.48 122.168 13.24C121.768 14 121.208 14.6 120.488 15.04C119.782 15.48 118.968 15.7 118.048 15.7ZM112.448 15.5V0.98H115.508V8.16L115.008 10.52L115.468 12.88V15.5H112.448ZM117.508 12.94C117.935 12.94 118.308 12.84 118.628 12.64C118.962 12.44 119.222 12.1667 119.408 11.82C119.595 11.4733 119.688 11.08 119.688 10.64C119.688 10.1867 119.595 9.78667 119.408 9.44C119.222 9.09333 118.962 8.82667 118.628 8.64C118.308 8.44 117.935 8.34 117.508 8.34C117.082 8.34 116.702 8.44 116.368 8.64C116.035 8.82667 115.775 9.09333 115.588 9.44C115.415 9.78667 115.328 10.1867 115.328 10.64C115.328 11.0933 115.422 11.4933 115.608 11.84C115.795 12.1867 116.048 12.46 116.368 12.66C116.702 12.8467 117.082 12.94 117.508 12.94ZM124.143 15.5V0.98H127.203V15.5H124.143ZM129.158 15.5V0.98H132.218V15.5H129.158ZM138.973 15.72C137.919 15.72 136.979 15.5067 136.153 15.08C135.339 14.64 134.699 14.0333 134.233 13.26C133.766 12.4867 133.533 11.6133 133.533 10.64C133.533 9.66667 133.759 8.8 134.213 8.04C134.679 7.26667 135.306 6.66 136.093 6.22C136.879 5.78 137.766 5.56 138.753 5.56C139.713 5.56 140.559 5.76667 141.293 6.18C142.026 6.59333 142.599 7.16667 143.013 7.9C143.439 8.63333 143.653 9.47333 143.653 10.42C143.653 10.5933 143.639 10.78 143.613 10.98C143.599 11.1667 143.566 11.3867 143.513 11.64L135.133 11.66V9.56L142.213 9.54L140.893 10.42C140.879 9.86 140.793 9.4 140.633 9.04C140.473 8.66667 140.233 8.38667 139.913 8.2C139.606 8 139.226 7.9 138.773 7.9C138.293 7.9 137.873 8.01333 137.513 8.24C137.166 8.45333 136.893 8.76 136.693 9.16C136.506 9.56 136.413 10.0467 136.413 10.62C136.413 11.1933 136.513 11.6867 136.713 12.1C136.926 12.5 137.219 12.8133 137.593 13.04C137.979 13.2533 138.433 13.36 138.953 13.36C139.433 13.36 139.866 13.28 140.253 13.12C140.639 12.9467 140.979 12.6933 141.273 12.36L142.953 14.04C142.473 14.6 141.893 15.02 141.213 15.3C140.533 15.58 139.786 15.72 138.973 15.72Z" fill="url(#paint0_linear_3163_21607)"/>
<defs>
<linearGradient id="paint0_linear_3163_21607" x1="-70.8242" y1="7.5" x2="230.5" y2="7.50001" gradientUnits="userSpaceOnUse">
<stop stop-color="#7429C6"/>
<stop offset="1" stop-color="#C951E7"/>
</linearGradient>
</defs>
</svg>

<svg width="144" height="16" fill="none" xmlns="http://www.w3.org/2000/svg"><path d="M4.83 15.5.29 1.38h3.12l3.32 10.86H5.51L8.75 1.38h2.46l3.24 10.86h-1.2l3.3-10.86h3.1L15.11 15.5h-2.46L9.39 4.64h1.16L7.29 15.5H4.83Zm19.47.22c-1 0-1.907-.22-2.72-.66a5.136 5.136 0 0 1-1.9-1.84c-.467-.773-.7-1.64-.7-2.6 0-.96.233-1.82.7-2.58.466-.76 1.1-1.36 1.9-1.8.8-.453 1.706-.68 2.72-.68 1.013 0 1.92.22 2.72.66.8.44 1.433 1.047 1.9 1.82.466.76.7 1.62.7 2.58s-.234 1.827-.7 2.6a5.137 5.137 0 0 1-1.9 1.84c-.8.44-1.707.66-2.72.66Zm0-2.78c.44 0 .826-.093 1.16-.28.333-.2.586-.473.76-.82.186-.36.28-.767.28-1.22 0-.453-.094-.847-.28-1.18a1.961 1.961 0 0 0-.78-.8c-.32-.2-.7-.3-1.14-.3-.427 0-.807.1-1.14.3a1.96 1.96 0 0 0-.78.8c-.187.347-.28.747-.28 1.2 0 .44.093.84.28 1.2.186.347.446.62.78.82.333.187.713.28 1.14.28Zm6.643 2.56V5.78h3.06v9.72h-3.06Zm3.06-5.34-1.28-1c.253-1.133.68-2.013 1.28-2.64.6-.627 1.433-.94 2.5-.94.467 0 .873.073 1.22.22.36.133.673.347.94.64l-1.82 2.3c-.133-.147-.3-.26-.5-.34-.2-.08-.427-.12-.68-.12-.507 0-.913.16-1.22.48-.293.307-.44.773-.44 1.4Zm9.142 5.54c-.92 0-1.74-.22-2.46-.66a4.75 4.75 0 0 1-1.68-1.8c-.4-.76-.6-1.627-.6-2.6 0-.973.2-1.84.6-2.6a4.75 4.75 0 0 1 1.68-1.8c.72-.44 1.54-.66 2.46-.66.666 0 1.266.127 1.8.38.546.253.993.607 1.34 1.06.36.44.56.947.6 1.52v4.1a2.905 2.905 0 0 1-.58 1.56c-.347.453-.794.82-1.34 1.1-.547.267-1.154.4-1.82.4Zm.54-2.76c.44 0 .82-.093 1.14-.28.32-.2.573-.473.76-.82.186-.347.28-.747.28-1.2 0-.453-.094-.847-.28-1.18a1.96 1.96 0 0 0-.76-.82c-.32-.2-.694-.3-1.12-.3-.427 0-.807.1-1.14.3-.32.2-.58.473-.78.82-.187.347-.28.74-.28 1.18 0 .44.093.833.28 1.18.186.347.446.62.78.82.333.2.706.3 1.12.3Zm5.06 2.56h-3v-2.62l.46-2.36-.52-2.36V.98h3.06V15.5Zm10.083.22c-1.16 0-2.16-.187-3-.56-.827-.387-1.587-.967-2.28-1.74l2.04-2.02c.453.52.953.927 1.5 1.22.56.28 1.206.42 1.94.42.666 0 1.18-.12 1.54-.36.373-.24.56-.573.56-1 0-.387-.12-.7-.36-.94s-.56-.447-.96-.62c-.387-.173-.82-.34-1.3-.5-.467-.16-.934-.34-1.4-.54a6.724 6.724 0 0 1-1.3-.78 3.72 3.72 0 0 1-.94-1.18c-.24-.48-.36-1.08-.36-1.8 0-.867.206-1.613.62-2.24.426-.627 1.013-1.1 1.76-1.42.746-.333 1.606-.5 2.58-.5.986 0 1.886.173 2.7.52.826.347 1.506.82 2.04 1.42l-2.04 2.02c-.427-.44-.86-.767-1.3-.98-.427-.213-.914-.32-1.46-.32-.547 0-.98.107-1.3.32-.32.2-.48.493-.48.88 0 .36.12.653.36.88.24.213.553.4.94.56.4.16.833.32 1.3.48.48.16.953.347 1.42.56.466.213.893.487 1.28.82.4.32.72.733.96 1.24.24.493.36 1.107.36 1.84 0 1.347-.48 2.407-1.44 3.18-.96.76-2.287 1.14-3.98 1.14Zm11.581 0c-1 0-1.906-.22-2.72-.66a4.947 4.947 0 0 1-1.92-1.82c-.466-.773-.7-1.64-.7-2.6 0-.973.234-1.84.7-2.6a5.095 5.095 0 0 1 1.94-1.82c.814-.44 1.727-.66 2.74-.66.76 0 1.454.133 2.08.4.64.253 1.207.64 1.7 1.16l-1.96 1.96a2.078 2.078 0 0 0-.8-.56 2.679 2.679 0 0 0-1.02-.18c-.44 0-.833.1-1.18.3-.333.187-.6.453-.8.8-.186.333-.28.727-.28 1.18 0 .453.094.853.28 1.2.2.347.474.62.82.82.347.2.734.3 1.16.3.4 0 .754-.067 1.06-.2.32-.147.594-.347.82-.6l1.94 1.96c-.506.533-1.08.94-1.72 1.22-.64.267-1.353.4-2.14.4Zm5.022-.22V5.78h3.06v9.72h-3.06Zm3.06-5.34-1.28-1c.254-1.133.68-2.013 1.28-2.64.6-.627 1.433-.94 2.5-.94.467 0 .874.073 1.22.22.36.133.674.347.94.64l-1.82 2.3c-.133-.147-.3-.26-.5-.34-.2-.08-.427-.12-.68-.12-.507 0-.913.16-1.22.48-.293.307-.44.773-.44 1.4Zm9.062 5.54c-.893 0-1.693-.22-2.4-.66a4.806 4.806 0 0 1-1.66-1.8c-.4-.76-.6-1.627-.6-2.6 0-.973.2-1.84.6-2.6.413-.76.967-1.36 1.66-1.8.707-.44 1.507-.66 2.4-.66.653 0 1.24.127 1.76.38.533.253.967.607 1.3 1.06.333.44.52.947.56 1.52v4.2a2.886 2.886 0 0 1-.56 1.54c-.32.44-.747.787-1.28 1.04a4.097 4.097 0 0 1-1.78.38Zm.62-2.76c.653 0 1.18-.213 1.58-.64.4-.44.6-.993.6-1.66 0-.453-.093-.853-.28-1.2a1.837 1.837 0 0 0-.76-.8c-.32-.2-.693-.3-1.12-.3a2.142 2.142 0 0 0-1.92 1.1c-.187.347-.28.747-.28 1.2 0 .44.093.833.28 1.18.187.347.447.62.78.82.333.2.707.3 1.12.3Zm2.06 2.56v-2.62l.46-2.36-.46-2.36V5.78h3v9.72h-3Zm4.954 0V5.78h3.06v9.72h-3.06Zm6.22 0V9.82c0-.493-.153-.873-.46-1.14-.293-.28-.66-.42-1.1-.42-.306 0-.58.067-.82.2-.24.12-.433.293-.58.52-.133.227-.2.507-.2.84l-1.18-.52c0-.773.167-1.433.5-1.98a3.31 3.31 0 0 1 1.36-1.28c.574-.307 1.22-.46 1.94-.46.68 0 1.287.153 1.82.46.547.307.98.733 1.3 1.28.32.547.48 1.2.48 1.96v6.22h-3.06Zm6.22 0V9.82c0-.493-.153-.873-.46-1.14-.293-.28-.66-.42-1.1-.42-.306 0-.58.067-.82.2-.24.12-.433.293-.58.52-.133.227-.2.507-.2.84l-1.76-.24c.027-.827.22-1.533.58-2.12.374-.6.86-1.06 1.46-1.38.614-.333 1.3-.5 2.06-.5.747 0 1.407.16 1.98.48a3.335 3.335 0 0 1 1.38 1.34c.347.573.52 1.267.52 2.08v6.02h-3.06Zm10.421.2a4.052 4.052 0 0 1-1.8-.4 3.898 3.898 0 0 1-1.34-1.1 3.054 3.054 0 0 1-.6-1.56v-4.1c.054-.573.254-1.08.6-1.52a3.523 3.523 0 0 1 1.34-1.06 4.23 4.23 0 0 1 1.8-.38c.92 0 1.734.22 2.44.66.72.44 1.28 1.04 1.68 1.8.414.76.62 1.627.62 2.6 0 .973-.206 1.84-.62 2.6-.4.76-.96 1.36-1.68 1.8-.706.44-1.52.66-2.44.66Zm-5.6-.2V.98h3.06v7.18l-.5 2.36.46 2.36v2.62h-3.02Zm5.06-2.56c.427 0 .8-.1 1.12-.3.334-.2.594-.473.78-.82.187-.347.28-.74.28-1.18 0-.453-.093-.853-.28-1.2a1.953 1.953 0 0 0-.78-.8c-.32-.2-.693-.3-1.12-.3-.426 0-.806.1-1.14.3a1.965 1.965 0 0 0-.78.8c-.173.347-.26.747-.26 1.2 0 .453.094.853.28 1.2.187.347.44.62.76.82.334.187.714.28 1.14.28Zm6.635 2.56V.98h3.06V15.5h-3.06Zm5.015 0V.98h3.06V15.5h-3.06Zm9.815.22c-1.054 0-1.994-.213-2.82-.64a4.937 4.937 0 0 1-1.92-1.82c-.467-.773-.7-1.647-.7-2.62 0-.973.226-1.84.68-2.6a5.019 5.019 0 0 1 1.88-1.82c.786-.44 1.673-.66 2.66-.66.96 0 1.806.207 2.54.62a4.45 4.45 0 0 1 1.72 1.72c.426.733.64 1.573.64 2.52 0 .173-.014.36-.04.56a5.168 5.168 0 0 1-.1.66l-8.38.02v-2.1l7.08-.02-1.32.88c-.014-.56-.1-1.02-.26-1.38-.16-.373-.4-.653-.72-.84-.307-.2-.687-.3-1.14-.3-.48 0-.9.113-1.26.34-.347.213-.62.52-.82.92-.187.4-.28.887-.28 1.46s.1 1.067.3 1.48c.213.4.506.713.88.94.386.213.84.32 1.36.32.48 0 .913-.08 1.3-.24a2.977 2.977 0 0 0 1.02-.76l1.68 1.68c-.48.56-1.06.98-1.74 1.26-.68.28-1.427.42-2.24.42Z" fill="url(#a)"/><defs><linearGradient id="a" x1="-70.824" y1="7.5" x2="230.5" y2="7.5" gradientUnits="userSpaceOnUse"><stop stop-color="#7429C6"/><stop offset="1" stop-color="#C951E7"/></linearGradient></defs></svg>
